X:315
T: Renmin gongshe shi huayuan
N: C1813
O: China, Gansu Linxia
S: I, 117, 2)]
N: Han Hui
R: Shange, Huar, Jindianhualing]
M: 2/4
L: 1/16
K: Eb
B2B2c2ce | efcBG4 | B2B2c2ef | c2c6- | c6
ec | B2B2c3e | BGBGG4 | B2B2cBce | BGBGG4
B2B2c2ce | efcBGBGF | E2ECE2F2 | GBBGF6EC | F2FEF2GB | F2F2z4

